X: 1
T: Leslie's March
R: March
M: 6/8
L: 1/8
K: D
|:d3 d3|dcB ABc|dcB AGF|G2F E2D|
e3 ede|fed eag|f2f d2 A|def e2d:|
|:fed eAA|fed eAA|gfe fBB|gfe fBB|
fed eAA|fed eag|f2f d2 A|def e2d:|
|:dfa dfa|dfa agf|egb egb|egb bge|
dfa dfa|dfa a2 g|f2f d2 A|def e2d:|
